svgs/duotone/calendar-lines.svg

<svg xmlns="http://www.w3.org/2000/svg" viewBox="0 0 448 512"><!--! Font Awesome Pro 6.6.0 by @fontawesome - https://fontawesome.com License - https://fontawesome.com/license (Commercial License) Copyright 2024 Fonticons, Inc. --><defs><style>.fa-secondary{opacity:.4}</style></defs><path class="fa-secondary" d="M0 192l448 0 0 272c0 26.5-21.5 48-48 48L48 512c-26.5 0-48-21.5-48-48L0 192zM96 296c0 13.3 10.7 24 24 24l208 0c13.3 0 24-10.7 24-24s-10.7-24-24-24l-208 0c-13.3 0-24 10.7-24 24zm0 96c0 13.3 10.7 24 24 24l112 0c13.3 0 24-10.7 24-24s-10.7-24-24-24l-112 0c-13.3 0-24 10.7-24 24z"/><path class="fa-primary" d="M96 32c0-17.7 14.3-32 32-32s32 14.3 32 32l0 32 128 0 0-32c0-17.7 14.3-32 32-32s32 14.3 32 32l0 32 48 0c26.5 0 48 21.5 48 48l0 80L0 192l0-80C0 85.5 21.5 64 48 64l48 0 0-32zm0 264c0-13.3 10.7-24 24-24l208 0c13.3 0 24 10.7 24 24s-10.7 24-24 24l-208 0c-13.3 0-24-10.7-24-24zm24 72l112 0c13.3 0 24 10.7 24 24s-10.7 24-24 24l-112 0c-13.3 0-24-10.7-24-24s10.7-24 24-24z"/></svg>

<svg xmlns="http://www.w3.org/2000/svg" viewBox="0 0 448 512"><!--! Font Awesome Pro 6.4.0 by @fontawesome - https://fontawesome.com License - https://fontawesome.com/license (Commercial License) Copyright 2023 Fonticons, Inc. --><defs><style>.fa-secondary{opacity:.4}</style></defs><path class="fa-primary" d="M96 32c0-17.7 14.3-32 32-32s32 14.3 32 32V64H288V32c0-17.7 14.3-32 32-32s32 14.3 32 32V64h48c26.5 0 48 21.5 48 48v80H0V112C0 85.5 21.5 64 48 64H96V32zm0 264c0-13.3 10.7-24 24-24H328c13.3 0 24 10.7 24 24s-10.7 24-24 24H120c-13.3 0-24-10.7-24-24zm24 72H232c13.3 0 24 10.7 24 24s-10.7 24-24 24H120c-13.3 0-24-10.7-24-24s10.7-24 24-24z"/><path class="fa-secondary" d="M0 192H448V464c0 26.5-21.5 48-48 48H48c-26.5 0-48-21.5-48-48V192zM96 296c0 13.3 10.7 24 24 24H328c13.3 0 24-10.7 24-24s-10.7-24-24-24H120c-13.3 0-24 10.7-24 24zm24 72c-13.3 0-24 10.7-24 24s10.7 24 24 24H232c13.3 0 24-10.7 24-24s-10.7-24-24-24H120z"/></svg>
